X:59
T:Zevenster
O:vlaanderen
C:Trad.
Z:Bart Vanhaverbeke 
L:1/8
M:6/8
K:C
G | "C"c2 c "G"B>cd | "F"c>BA "C"G2 G | "C"c2 c "G"B>cd | "D7"e>dc "G"d2 G | "C"c2 c "G"B>cd | "F"c>BA "C"G2 G | "C"c2 c "G"B>AB | "C"c3 c2 c |
"F"f2 f f>ed | "C"e2 e e>dc | "G"d2 d d>ef | "C"g3 g2 c | "G"d2 d d>cB | "C"c3 c2 |]
